packages/icons/src/assets/default/volume-low.svg

<svg width="18" height="18" viewBox="0 0 18 18" fill="none" xmlns="http://www.w3.org/2000/svg">
<path fill-rule="evenodd" clip-rule="evenodd" d="M0.714286 6.00821H3.78571L7.85714 2.15055C8.35714 1.77454 9 2.15055 9 2.75216V15.2804C9 15.882 8.35714 16.1828 7.85714 15.882L3.78571 12.0243H0.714286C0.285714 12.0243 0 11.7235 0 11.2723V6.76022C0 6.30901 0.285714 6.00821 0.714286 6.00821ZM11.282 6.59786C10.906 6.22189 10.906 5.65794 11.282 5.28197C11.6579 4.90601 12.2219 4.90601 12.5979 5.28197C13.801 6.48514 14.0675 7.49785 14.1197 8.48974C14.1286 8.66016 14.1313 8.82996 14.1313 9C14.1311 10.1598 13.7734 11.7327 12.5979 12.8028C12.5157 12.8776 12.4124 12.9281 12.2998 12.9593C11.9177 13.065 11.4272 12.948 11.282 12.8028C10.906 12.4268 10.906 11.8629 11.282 11.4869C11.8517 10.9172 12.2773 9.93588 12.2773 9C12.2773 8.05605 12.0172 7.33303 11.282 6.59786Z" fill="black"/>
</svg>

<svg xmlns="http://www.w3.org/2000/svg" width="18" height="18" fill="currentColor" viewBox="0 0 18 18">
  <path d="M.714 6.008h3.072l4.071-3.857c.5-.376 1.143 0 1.143.601V15.28c0 .602-.643.903-1.143.602l-4.071-3.858H.714c-.428 0-.714-.3-.714-.752V6.76c0-.451.286-.752.714-.752m10.568.59a.91.91 0 0 1 0-1.316.91.91 0 0 1 1.316 0c1.203 1.203 1.47 2.216 1.522 3.208q.012.255.011.51c0 1.16-.358 2.733-1.533 3.803a.7.7 0 0 1-.298.156c-.382.106-.873-.011-1.018-.156a.91.91 0 0 1 0-1.316c.57-.57.995-1.551.995-2.487 0-.944-.26-1.667-.995-2.402"/>
</svg>
